!!!COM: echotape
!!!OTL: far-from-heaven
!!!RNB: hooktheoryid: dJNgqGrworz
**kern	**text
*clefG2	*
*k[f#c#]	*
*M4/4	*
=1	=1
4.b	Bm
4cc#	.
4.dd	.
=2	=2
2r	Bm
8b	.
8cc#	.
8dd	.
[8gg	.
=3	=3
4.gg]	G
8.ff#	.
[4ee	.
16ee]	.
8r	.
=4	=4
2r	G
8dd	.
8ee	.
8ff#	.
[8gg	.
=5	=5
4.gg]	Em
8.ff#	.
[4ee	.
16ee]	.
8r	.
=6	=6
8r	Em
8b	.
2ee	.
8ee	.
[8dd	.
=7	=7
16dd]	Bm
[2..b	.
16b	.
=8	=8
1b	Bm
=9	=9
1r	.
*-	*-